X:1
T:The Creche
L:1/8
M:9/8
I:linebreak $
K:G
V:1 treble 
V:1
|: GGG GAB ABc | BBB Bcd cd_e | edc gdc BAG | ABG FGA DFA |$ GGG GAB ABc | BBB Bcd cd_e | %6
 edc gdc BAG | ABG FAF G3 :| G3 G3 F3 | A3 (G3 G2) g |$ fed cBA Bcd | cBA F/G/AF DEF |1 G3 G3 F3 | %13
 A3 (G3 G2) g | fed cBA Bcd |$ cBA F/G/AF G3 :|2 GGG GAB ABc | BBB Bcd cd_e | edc gdc BAG | %19
 ABG FAF G3 || %20
